!!!COM: Palestrina, Giovanni Perluigi da
!!!OPR: Nasce la gioia mia
!!!OTL: Gloria
**kern	**kern	**kern	**kern	**kern	**kern
*Ibass	*Itenor	*Itenor	*Icalto	*Icant	*Icant
!Bassus	!Tenor 2	!Tenor 1	!Altus	!Cantus 2	!Cantus 1
*clefF4	*clefGv2	*clefGv2	*clefG2	*clefG2	*clefG2
*k[b-]	*k[b-]	*k[b-]	*k[b-]	*k[b-]	*k[b-]
*G:dor	*G:dor	*G:dor	*G:dor	*G:dor	*G:dor
*M4/2	*M4/2	*M4/2	*M4/2	*M4/2	*M4/2
=1	=1	=1	=1	=1	=1
1G	0r	1r	0r	0r	0r
2G	.	1d	.	.	.
[2B-	.	.	.	.	.
=2	=2	=2	=2	=2	=2
2B-]	1G	2d	0r	0r	0r
2G	.	1B-	.	.	.
2.B-	2G	.	.	.	.
.	[2B-	2G	.	.	.
4c	.	.	.	.	.
=3	=3	=3	=3	=3	=3
1d	2B-]	2.B-	0r	0r	0r
.	2G	.	.	.	.
.	.	4c	.	.	.
1G	2.B-	1d	.	.	.
.	4c	.	.	.	.
=4	=4	=4	=4	=4	=4
2G	2d	1B	0r	1r	0r
2G	2d	.	.	.	.
1C	[1e-	[1c	.	1g	.
=5	=5	=5	=5	=5	=5
0r	2e-]	2c]	1r	2g	1g
.	2d	2G	.	1b-	.
.	2.d	[1G	1g	.	2g
.	.	.	.	2g	[2b-
.	4c	.	.	.	.
=6	=6	=6	=6	=6	=6
0r	4d	1G]	2g	2.b-	2b-]
.	4c	.	.	.	.
.	4B-	.	1b-	.	2g
.	4A	.	.	4cc	.
.	1G	1r	.	[1dd	2.b-
.	.	.	2g	.	.
.	.	.	.	.	4cc
=7	=7	=7	=7	=7	=7
0r	0r	1g	2.b-	2dd]	2dd
.	.	.	.	2g	2dd
.	.	.	4a	.	.
.	.	2e-	2g	2b-	2ee-
.	.	2c	2g	2cc	2ee-
=8	=8	=8	=8	=8	=8
0r	0r	2d	2f	2a	2dd
.	.	1d	2f	1a	2dd
.	.	.	2f	.	2dd
.	.	2d	[2a	2f	[2ff
=9	=9	=9	=9	=9	=9
0r	0r	2c	2a]	2cc	2ff]
.	.	2c	1g	2cc	2ee-
.	.	1d	.	1a	1dd
.	.	.	2f#	.	.
=10	=10	=10	=10	=10	=10
1G	2r	1d	2g	2b	1dd
.	2d	.	2g	2b	.
2c	2e	1r	2g	2cc	1r
2F	2f	.	2a	2cc	.
=11	=11	=11	=11	=11	=11
2.G	0d	1r	1g	2.b-	1r
8F	.	.	.	8a	.
8E	.	.	.	8g	.
1D	.	2r	1f#	2a	1dd
.	.	2d	.	2a	.
=12	=12	=12	=12	=12	=12
0r	0r	2d	2f#	2a	2dd
.	.	2d	2f#	2a	2dd
.	.	2g	2g	2b	2dd
.	.	2c	2g	2cc	2ee-
=13	=13	=13	=13	=13	=13
2r	2r	2d	2f#	1a	0dd
1D	1d	1f#	1a	.	.
.	.	.	.	1r	.
2D	2d	2f#	2a	.	.
=14	=14	=14	=14	=14	=14
2G	2d	2g	2b	1r	1r
2C	2e-	2g	2cc	.	.
[1D	2d	1f#	2a	2r	2r
.	2d	.	2a	2a	2dd
=15	=15	=15	=15	=15	=15
1D]	2d	0r	2f#	2a	2dd
.	2d	.	2f#	2a	2dd
1r	2g	.	2g	2b	2dd
.	2c	.	[2g	2cc	2ee-
=16	=16	=16	=16	=16	=16
0r	1d	0r	4g]	1a	0dd
.	.	.	8f	.	.
.	.	.	8e	.	.
.	.	.	2f#	.	.
.	1G	.	1g	1b	.
=17	=17	=17	=17	=17	=17
1.C	1.c	1.e	1.g	0r	2r
.	.	.	.	.	2cc
.	.	.	.	.	1cc
2C	2c	2e	2g	.	.
=18	=18	=18	=18	=18	=18
1C	1c	1e	1g	1r	0cc
1r	[1F	2.f	2r	[1a	.
.	.	.	[2f	.	.
.	.	4e-	.	.	.
=19	=19	=19	=19	=19	=19
0r	2F]	2d	4f]	2a]	2.ff
.	.	.	4f	.	.
.	2F	2c	2f	2a	.
.	.	.	.	.	4ee-
.	1F	2A	2.f	1a	2dd
.	.	[2f	.	.	2cc
.	.	.	4e-	.	.
=20	=20	=20	=20	=20	=20
0r	1B-	2f]	2d	2r	2b-
.	.	2d	2B-	2.b-	2f
.	2G	1r	2d	.	2g
.	.	.	.	4b-	.
.	2F	.	[2f	2a	[2cc
=21	=21	=21	=21	=21	=21
1.C	1c	2r	2f]	2g	4cc]
.	.	.	.	.	4cc
.	.	2G	4e	2g	2cc
.	.	.	4d	.	.
.	2c	2G	1e	2g	[1cc
2C	2c	2c	.	2g	.
=22	=22	=22	=22	=22	=22
2.F	2c	1.A	1f	1a	1cc]
.	2.f	.	.	.	.
4E	.	.	.	.	.
2D	.	.	1r	2f	1r
.	4f	.	.	.	.
2C	2e	2c	.	2g	.
=23	=23	=23	=23	=23	=23
1G	2d	2d	2.g	2b	0r
.	1c	2e-	.	2cc	.
.	.	.	4g	.	.
1G	.	1d	2g	2dd	.
.	2B	.	2d	[2g	.
=24	=24	=24	=24	=24	=24
1C	2c	1c	2e	2g]	2r
.	2.c	.	2.g	2.cc	2.ee
1r	.	1r	.	.	.
.	4A	.	4a	4cc	4ff
.	2B-	.	2f	2b-	2dd
=25	=25	=25	=25	=25	=25
0r	2G	0r	2g	2b-	2dd
.	2c	.	2e	2g	2.cc
.	4F	.	1f	2a	.
.	4G	.	.	.	4b-
.	4A	.	.	2cc	2a
.	4B-	.	.	.	.
=26	=26	=26	=26	=26	=26
0r	2c	0r	2e	2.cc	2g
.	2A	.	1a	.	2cc
.	.	.	.	4b-	.
.	1d	.	.	2a	1ff
.	.	.	4g	2b	.
.	.	.	4f	.	.
=27	=27	=27	=27	=27	=27
2r	2c	2r	2g	1cc	1ee
2.c	2.g	2.e	2c	.	.
.	.	.	2cc	1r	1r
4A	4a	4f	.	.	.
2B-	2f	2d	2b-	.	.
=28	=28	=28	=28	=28	=28
2G	2g	2d	2b-	2.g	2r
2C	2e	2c	2g	.	2.cc
.	.	.	.	4e	.
2F	2c	2.A	1f	2a	.
.	.	.	.	.	4a
2D	2d	.	.	2a	2dd
.	.	4B-	.	.	.
=29	=29	=29	=29	=29	=29
2A	2e	2c	2e	0a	2cc
2D	2.a	2d	2d	.	1ff
2.F	.	[1A	4c	.	.
.	4g	.	4A	.	.
.	2f	.	[2a	.	[2dd
4G	.	.	.	.	.
=30	=30	=30	=30	=30	=30
2A	2e	1A]	2a]	2.a	2dd]
2A	2e	.	2e	.	2cc#
.	.	.	.	4a	.
1D	1d	2r	2f#	2a	2dd
.	.	[2d	[2f#	[2a	[2dd
=31	=31	=31	=31	=31	=31
0r	0r	4d]	4f#]	4a]	4dd]
.	.	4B-	4g	4d	4dd
.	.	2c	2g	2e	2cc
.	.	2A	2a	2f	2cc
.	.	2G	[2d	2g	2b-
=32	=32	=32	=32	=32	=32
0r	0r	2d	2d]	2f	2a
.	.	2G	2.b-	2g	2dd
.	.	2.B-	.	2f	[1dd
.	.	.	4a	.	.
.	.	.	[2g	2b-	.
.	.	4c	.	.	.
=33	=33	=33	=33	=33	=33
0r	1r	2d	2g]	1a	2dd]
.	.	2d	2f#	.	2dd
.	[1G	1d	1g	1b	1dd
=34	=34	=34	=34	=34	=34
0C	1G]	[0c	0g	1.cc	0ee
.	1c	.	.	.	.
.	.	.	.	2g	.
=35	=35	=35	=35	=35	=35
1F	1A	1c]	0f	4a	2.ff
.	.	.	.	4b-	.
.	.	.	.	2.cc	.
.	.	.	.	.	4ee-
1BB-	1B-	2d	.	.	1dd
.	.	.	.	4b-	.
.	.	[2f	.	[2b-	.
=36	=36	=36	=36	=36	=36
0F	1c	2f]	0f	2b-]	0cc
.	.	4e-	.	4a	.
.	.	4d	.	4g	.
.	[1F	1c	.	1a	.
=37	=37	=37	=37	=37	=37
0BB-	1F]	0B-	1f	1b-	1dd
.	2.f	.	2r	2r	2.dd
.	.	.	2f	[2b-	.
.	4d	.	.	.	4dd
=38	=38	=38	=38	=38	=38
0r	2e-	0r	2g	4b-]	2b-
.	.	.	.	4g	.
.	2c	.	2e	2a	2cc
.	2B-	.	2f	1b-	1dd
.	4G	.	2g	.	.
.	4A	.	.	.	.
=39	=39	=39	=39	=39	=39
0r	4B-	0r	2.f	2b-	1.dd
.	4c	.	.	.	.
.	4d	.	.	1a	.
.	4e	.	4e	.	.
.	2f	.	2d	.	.
.	2g	.	2G	2b	2dd
=40	=40	=40	=40	=40	=40
1r	1c	1r	1g	1cc	1ee-
2r	1d	2r	1f#	2a	[1dd
2D	.	2d	.	2a	.
=41	=41	=41	=41	=41	=41
2F#	0r	2d	2r	2a	1dd]
2G	.	2d	2g	2b	.
1C	.	1e-	2g	1cc	1r
.	.	.	2g	.	.
=42	=42	=42	=42	=42	=42
1D	2r	2d	2.f	2a	1r
.	2A	2d	.	2a	.
.	.	.	8e	.	.
.	.	.	8f	.	.
1r	2c#	2e	2e	2a	2r
.	2d	2f#	2d	2a	2dd
=43	=43	=43	=43	=43	=43
0r	1G	1g	1d	1b-	2dd
.	.	.	.	.	2dd
.	[1A	1e	1r	1a	1cc#
=44	=44	=44	=44	=44	=44
1D	1A]	2r	2.f#	2r	0dd
.	.	2d	.	2a	.
.	.	.	4g	.	.
2F#	1r	2d	2a	2a	.
2G	.	2d	2g	2b	.
=45	=45	=45	=45	=45	=45
0C	2r	0e-	1g	2.cc	2r
.	2G	.	.	.	2cc
.	.	.	.	4b-	.
.	2c	.	2r	2.g	2cc
.	2c	.	[2g	.	2cc
.	.	.	.	4a	.
=46	=46	=46	=46	=46	=46
0G	1B-	[0d	4g]	0b-	0dd
.	.	.	4g	.	.
.	.	.	2d	.	.
.	1G	.	1g	.	.
=47	=47	=47	=47	=47	=47
0D	0A	0d]	0f#	0a	0dd
=48	=48	=48	=48	=48	=48
0r	1r	0r	1r	1r	1g
.	[1G	.	[1d	1g	2.b-
.	.	.	.	.	4cc
=49	=49	=49	=49	=49	=49
0r	1G]	0r	2d]	1b-	1dd
.	.	.	1g	.	.
.	1d	.	.	[1a	[1dd
.	.	.	4f#	.	.
.	.	.	4e	.	.
=50	=50	=50	=50	=50	=50
0r	2d	0r	1f#	2a]	2dd]
.	2d	.	.	2a	2dd
.	2c	.	[1g	2cc	2ee-
.	2B	.	.	2dd	2dd
=51	=51	=51	=51	=51	=51
1r	1c	0r	2g]	2.cc	1ee-
.	.	.	2g	.	.
.	.	.	.	4b-	.
[1D	1d	.	2f#	2a	[1dd
.	.	.	2g	[2g	.
=52	=52	=52	=52	=52	=52
1D]	2r	1d	1a	2g]	0dd]
.	2d	.	.	2f#	.
1G	2B-	1d	[1g	4g	.
.	.	.	.	4a	.
.	2G	.	.	4b-	.
.	.	.	.	4cc	.
=53	=53	=53	=53	=53	=53
2G	1B-	2d	1g]	2dd	0r
2G	.	2e	.	2b-	.
2F	[1c	2f	1r	2a	.
2E	.	2g	.	2g	.
=54	=54	=54	=54	=54	=54
1F	1c]	1f	2r	1a	1r
.	.	.	1cc	.	.
[1G	1r	[1d	.	1g	2r
.	.	.	2b-	.	[2dd
=55	=55	=55	=55	=55	=55
1G]	2r	1d]	4g	2.b-	2dd]
.	.	.	4a	.	.
.	1d	.	4b-	.	2gg
.	.	.	4g	4cc	.
1r	.	1r	2a	2dd	2ff
.	2g	.	2g	2b-	2dd
=56	=56	=56	=56	=56	=56
0r	2f	0r	2a	2cc	0ff
.	2d	.	1b-	2dd	.
.	1f	.	.	1cc	.
.	.	.	2a	.	.
=57	=57	=57	=57	=57	=57
0G	2.B-	2r	2b-	0b-	1dd
.	.	2d	2g	.	.
.	4c	.	.	.	.
.	1d	1g	4b-	.	1dd
.	.	.	4a	.	.
.	.	.	4g	.	.
.	.	.	4f	.	.
=58	=58	=58	=58	=58	=58
1c	0r	2g	4e	0r	1cc
.	.	.	4d	.	.
.	.	2g	2e	.	.
2c	.	2e	2c	.	2cc
2c	.	2e	2g	.	2cc
=59	=59	=59	=59	=59	=59
2B-	0r	0f	2b-	0r	2dd
2A	.	.	2cc	.	2cc
1B-	.	.	1b-	.	1dd
=60	=60	=60	=60	=60	=60
1c	1r	1e	1g	2r	1cc
.	.	.	.	1cc	.
1r	[1G	[1g	1r	.	[1dd
.	.	.	.	4b	.
.	.	.	.	4a	.
=61	=61	=61	=61	=61	=61
0r	2G]	2g]	1r	1b	2dd]
.	2G	2g	.	.	2dd
.	1G	2.g	2r	1b	1dd
.	.	.	[2g	.	.
.	.	4f	.	.	.
=62	=62	=62	=62	=62	=62
1.C	1.c	4e	2g]	1cc	1.ee
.	.	4d	.	.	.
.	.	2e	2g	.	.
.	.	4c	2.g	2r	.
.	.	4d	.	.	.
2C	2c	4e	.	[2g	2ee
.	.	4f	4f	.	.
=63	=63	=63	=63	=63	=63
0C	1c	2g	0e	2g]	1ee
.	.	1c	.	2g	.
.	1r	.	.	2.cc	2r
.	.	2c	.	.	[2cc
.	.	.	.	4b-	.
=64	=64	=64	=64	=64	=64
0r	1.F	2.f	1r	1a	2cc]
.	.	.	.	.	2cc
.	.	4e	.	.	.
.	.	2d	[1f	1a	2.ff
.	2F	2c	.	.	.
.	.	.	.	.	4ee
=65	=65	=65	=65	=65	=65
0r	2B-	2B-	2f]	0r	2dd
.	2A	2c	2f	.	2cc
.	2G	4d	2b-	.	2b-
.	.	4e	.	.	.
.	2F	4f	2a	.	2cc
.	.	8e	.	.	.
.	.	8d	.	.	.
=66	=66	=66	=66	=66	=66
1.C	1c	2e	2g	1r	1cc
.	.	2.f	2f	.	.
.	2c	.	1g	2r	[1cc
.	.	4e	.	.	.
2C	2c	2e	.	2g	.
=67	=67	=67	=67	=67	=67
2.F	2c	2f	1f	2a	1cc]
.	1f	2c	.	2.a	.
4E	.	.	.	.	.
2D	.	4d	2r	.	1r
.	.	8e	.	4b	.
.	.	8f	.	.	.
2C	2e	[2g	2c	2cc	.
=68	=68	=68	=68	=68	=68
0G	2d	4g]	4d	2b	0r
.	.	4f	8e	.	.
.	.	.	8f	.	.
.	2c	2e	2.g	1cc	.
.	2d	1d	.	.	.
.	.	.	4f	.	.
.	[2g	.	2d	2b	.
=69	=69	=69	=69	=69	=69
0C	4g]	0c	2.e	1cc	1g
.	4f	.	.	.	.
.	4e	.	.	.	.
.	4d	.	4f	.	.
.	2e	.	1g	2r	[1cc
.	2c	.	.	2g	.
=70	=70	=70	=70	=70	=70
0r	1f	0r	1r	1a	1cc]
.	2f	.	2r	2a	2dd
.	2e	.	2c	2g	2ee
=71	=71	=71	=71	=71	=71
0r	2.d	0r	1f	2a	2.ff
.	.	.	.	2b	.
.	4d	.	.	.	4ff
.	1c	.	2g	1cc	1ee
.	.	.	2a	.	.
=72	=72	=72	=72	=72	=72
0r	1B-	1r	2.b-	1f	1dd
.	.	.	4b-	.	.
.	4F	2r	1a	1f	1cc
.	4G	.	.	.	.
.	4A	[2f	.	.	.
.	4B-	.	.	.	.
=73	=73	=73	=73	=73	=73
1r	0c	2f]	1g	2r	2r
.	.	2e	.	2g	1cc
[1F	.	1f	2f	1a	.
.	.	.	[2a	.	2a
=74	=74	=74	=74	=74	=74
2F]	2r	2.c	2a]	2f	1cc
2E	2c	.	2g	2g	.
.	.	4B-	.	.	.
1F	2c	4A	4f	1a	[1cc
.	.	4G	4g	.	.
.	[2f	2F	4a	.	.
.	.	.	4b-	.	.
=75	=75	=75	=75	=75	=75
1C	2f]	0G	2cc	2.g	1cc]
.	2e-	.	2g	.	.
.	.	.	.	4a	.
1G	1d	.	[1g	1b-	1dd
=76	=76	=76	=76	=76	=76
0D	1d	1A	2g]	2a	0dd
.	.	.	2f#	1a	.
.	2.f	2r	2r	.	.
.	.	[2A	[2a	2dd	.
.	4f	.	.	.	.
=77	=77	=77	=77	=77	=77
0r	2e	2A]	2a]	2cc	0r
.	2d	2d	2f	2a	.
.	2e	2c	2g	[1cc	.
.	[2f	2A	2a	.	.
=78	=78	=78	=78	=78	=78
1r	2f]	2c	2g	1cc]	0r
.	2e	2c	2g	.	.
2r	2f	2.d	1f	2b-	.
[2D	[2d	.	.	[2a	.
.	.	4c	.	.	.
=79	=79	=79	=79	=79	=79
2D]	2d]	1B-	1d	4a]	0r
.	.	.	.	4f	.
2G	2B-	.	.	2g	.
2F	2c	[1A	1f	[1a	.
2D	[2d	.	.	.	.
=80	=80	=80	=80	=80	=80
2F	2d]	1A]	1f	1a]	1r
2F	1c	.	.	.	.
2.G	.	1r	2e-	[1g	2r
.	2B-	.	[2d	.	2dd
4F	.	.	.	.	.
=81	=81	=81	=81	=81	=81
1E-	1G	1r	2d]	1g]	1.gg
.	.	.	2c	.	.
1D	1A	2r	1d	2r	.
.	.	2d	.	2a	2ff
=82	=82	=82	=82	=82	=82
0r	0r	1.g	1r	1.b-	2dd
.	.	.	.	.	2.ee-
.	.	.	1d	.	.
.	.	.	.	.	4dd
.	.	2f	.	2a	[2dd
=83	=83	=83	=83	=83	=83
1r	1r	2e-	1.g	2b-	2dd]
.	.	2e-	.	2g	2cc
1D	2r	1d	.	1a	1dd
.	2A	.	2f	.	.
=84	=84	=84	=84	=84	=84
1.G	1.B-	0r	2d	0r	1r
.	.	.	2.e-	.	.
.	.	.	.	.	2r
.	.	.	4d	.	.
2F	2A	.	[2d	.	2dd
=85	=85	=85	=85	=85	=85
2E-	2G	0r	2d]	1r	1gg
2E-	2G	.	2c	.	.
[1D	[1A	.	4d	2r	2ff
.	.	.	4e	.	.
.	.	.	4f	2a	2dd
.	.	.	4g	.	.
=86	=86	=86	=86	=86	=86
1D]	1A]	1d	1a	1dd	2.ff
.	.	.	.	.	4ee-
1r	1r	1g	1r	2b-	4dd
.	.	.	.	.	4cc
.	.	.	.	2g	4dd
.	.	.	.	.	4b-
=87	=87	=87	=87	=87	=87
0r	0r	2f	0r	2a	2cc
.	.	2d	.	1b-	2dd
.	.	2f	.	.	1cc
.	.	2f	.	2a	.
=88	=88	=88	=88	=88	=88
1r	0B-	1f	1r	1b-	1dd
[1E-	.	2r	[1g	[1b-	[1ee-
.	.	[2B-	.	.	.
=89	=89	=89	=89	=89	=89
1E-]	2G	2B-]	1g]	1b-]	1ee-]
.	2.e-	2G	.	.	.
1C	.	1c	1g	1cc	1ee-
.	4d	.	.	.	.
.	[2c	.	.	.	.
=90	=90	=90	=90	=90	=90
0G	2c]	1G	0g	1dd	0dd
.	4B	.	.	.	.
.	4A	.	.	.	.
.	1B	1r	.	[1g	.
=91	=91	=91	=91	=91	=91
1C	2c	2r	2e	1g]	2cc
.	2e	2c	2g	.	2cc
1r	2f	2A	2a	1r	2cc
.	2d	2B-	2f	.	2b-
=92	=92	=92	=92	=92	=92
2r	2d	2G	2g	2r	2b-
2c	2e	2c	2g	2cc	2g
2A	1f	2F	1f	2cc	2a
2B-	.	2f	.	2b-	2dd
=93	=93	=93	=93	=93	=93
2G	1r	2g	0r	2b-	2dd
2C	.	2g	.	2g	2ee
1F	2r	2f	.	2a	1ff
.	2A	[2a	.	2cc	.
=94	=94	=94	=94	=94	=94
1r	2c	4a]	1r	2cc	2ee
.	.	4g	.	.	.
.	2d	1f	.	2a	1dd
2r	1A	.	2r	1a	.
2A	.	[2e	2a	.	[2cc
=95	=95	=95	=95	=95	=95
2c	0r	2e]	2g	0r	2cc]
2d	.	1d	2f	.	2b-
1A	.	.	1e	.	[1a
.	.	2c#	.	.	.
=96	=96	=96	=96	=96	=96
2r	1f	1d	2r	2r	1a]
2D	.	.	2d	2a	.
2F	2f	1r	2c	2a	1r
2G	2d	.	2B	2g	.
=97	=97	=97	=97	=97	=97
1C	1e-	0r	2.c	1g	1r
.	.	.	4B-	.	.
1D	[1d	.	2A	2f	[1ff
.	.	.	[2a	2d	.
=98	=98	=98	=98	=98	=98
1D	2d]	0r	2a]	4f	2ff]
.	.	.	.	4g	.
.	2d	.	2f	4a	2dd
.	.	.	.	4b-	.
1r	2c	.	2g	2cc	2ee-
.	2c	.	4a	2cc	2ee-
.	.	.	[4g	.	.
=99	=99	=99	=99	=99	=99
1r	1d	1r	4g]	1a	1dd
.	.	.	8f	.	.
.	.	.	8e	.	.
.	.	.	2f#	.	.
2r	1G	2r	[1g	1b	2dd
2G	.	2d	.	.	2dd
=100	=100	=100	=100	=100	=100
2B	1r	2d	1g]	1r	2dd
2c	.	2e	.	.	2cc
1F	2r	1f	1a	2r	2cc
.	2A	.	.	2cc	2ff
=101	=101	=101	=101	=101	=101
0r	2c	0r	2g	2cc	2ee-
.	2d	.	2f#	2a	2dd
.	1G	.	1g	1b-	[1dd
=102	=102	=102	=102	=102	=102
1D	2r	2r	1f	1a	0dd]
.	2A	2d	.	.	.
2F	2A	2d	2f	2a	.
2G	2B	2d	2d	2g	.
=103	=103	=103	=103	=103	=103
1C	1c	1e-	2c	1g	1r
.	.	.	2g	.	.
1D	2A	[1d	4f	2.dd	[1ff
.	.	.	4e	.	.
.	2A	.	4d	.	.
.	.	.	4e	8cc	.
.	.	.	.	8b-	.
=104	=104	=104	=104	=104	=104
1D	1d	2d]	4f	2a	2ff]
.	.	.	4g	.	.
.	.	2A	2.a	2f	2dd
2C	1G	2.c	.	2g	2ee-
.	.	.	4g	.	.
2C	.	.	[2g	2g	2ee-
.	.	4B-	.	.	.
=105	=105	=105	=105	=105	=105
0D	0d	0A	2g]	1r	0dd
.	.	.	4f#	.	.
.	.	.	4e	.	.
.	.	.	1f#	1a	.
=106	=106	=106	=106	=106	=106
0G	0d	0G	0g	0b	0dd
==	==	==	==	==	==
*-	*-	*-	*-	*-	*-
!!!CDT: 1525/^1526/-1594/2/2
!!!OCY: Italia
!!!AGN: Mass (Parody)
!!!AST: renaissance, vocal
!!!ASW: Madrigal 1565 (Primavera)
!!!PWK: Masses, Book 5
!!!RNB: Cadence finals: D
!!!YOR: Le Opere Complete, v. 15, p. 161
!!!YOO: Rome, Italy: Fratelli Scalera
!!!END: 1992//
!!!EED: John Miller
!!!YEC: Copyright 2000, John Miller
!!!YEN: United States of America
!!!YEM: Rights to all derivative electronic formats reserved.
!!!YEM: Refer to licensing agreement for further details.
!!!YEM: This file must be accompanied by the licensing agreement.
!!!YEM: A copy of the licensing agreement may be found at http://www.music-cog.ohio-state.edu/HumdrumDatabases/Palestrina/license.txt
!!!EMD: converted to Humdrum by Bret Aarden
